dist/img/logo-2.svg

<svg width="137" height="48" viewBox="0 0 137 48" fill="none" xmlns="http://www.w3.org/2000/svg">
<mask id="mask0_1_167" style="mask-type:luminance" maskUnits="userSpaceOnUse" x="0" y="0" width="137" height="48">
<path d="M137 0H0V48H137V0Z" fill="white"/>
</mask>
<g mask="url(#mask0_1_167)">
<path d="M0.153499 27.9142C0.397899 27.8562 24.8152 22.0349 43.1998 13.8808C45.2449 12.9738 46.9008 12.4361 48.2956 12.1827C46.7329 13.7573 37.54 17.6827 44.882 18.3783C51.6186 19.0172 40.5214 27.0108 35.4343 29.917C22.0532 34.1597 13.3687 35.8259 13.2126 35.8555L13.3967 36.8371C13.4423 36.8284 14.2201 36.6793 15.6276 36.3679C23.0039 34.7354 47.7648 28.6221 76.1721 14.6517C80.1558 12.6925 83.4072 11.606 86.1436 11.2028C85.3414 15.3186 76.0532 24.42 90.8867 26.7182C104.416 28.8142 77.2846 34.1361 67.1729 36.8458C65.7145 37.2367 64.6097 37.5733 64.0327 37.8377C59.5683 39.8854 111.467 38.0435 134.676 37.9502C135.433 37.9769 136.206 37.9922 137 37.9922V36.9933C116.27 36.9933 108.928 27.5136 103.028 19.8966C96.8975 11.9809 92.0551 5.72774 75.7316 13.7553C71.9386 15.6195 68.1041 17.3982 64.2312 19.0902C60.8086 17.8722 58.7358 16.1204 56.9198 14.5827C53.5385 11.7195 51.0952 9.65046 42.9304 13.2725C24.6028 21.4006 0.243734 27.2086 0 27.2662L0.153499 27.9142Z" fill="#FDFDFD"/>
</g>
</svg>

<svg width="137" height="48" fill="none" xmlns="http://www.w3.org/2000/svg"><mask id="a" style="mask-type:luminance" maskUnits="userSpaceOnUse" x="0" y="0" width="137" height="48"><path d="M137 0H0v48h137V0z" fill="#fff"/></mask><g mask="url(#a)"><path d="M.153 27.914c.245-.058 24.662-5.88 43.047-14.033 2.045-.907 3.7-1.445 5.096-1.698-1.563 1.574-10.756 5.5-3.414 6.195 6.737.64-4.36 8.633-9.448 11.539-13.38 4.243-22.065 5.909-22.221 5.938l.184.982c.045-.009.823-.158 2.23-.47 7.377-1.632 32.138-7.745 60.545-21.715 3.984-1.96 7.235-3.046 9.972-3.45-.803 4.117-10.09 13.218 4.743 15.516 13.529 2.096-13.602 7.418-23.714 10.128-1.459.39-2.563.727-3.14.992-4.465 2.047 47.434.206 70.643.112.757.027 1.53.042 2.324.042v-.999c-20.73 0-28.072-9.48-33.972-17.096-6.13-7.916-10.973-14.17-27.296-6.142a282.248 282.248 0 01-11.5 5.335c-3.423-1.218-5.496-2.97-7.312-4.507-3.382-2.864-5.825-4.933-13.99-1.31C24.603 21.4.244 27.209 0 27.266l.153.648z" fill="#FDFDFD"/></g></svg>
